fs/calendar_info_20_regular.svg

<svg viewBox="0 0 20 20" fill="none" xmlns="http://www.w3.org/2000/svg" height="1em" width="1em">
  <path d="M14.5 3C15.8807 3 17 4.11929 17 5.5V9.59971C16.6832 9.43777 16.3486 9.30564 16 9.20703V7H4V14.5C4 15.3284 4.67157 16 5.5 16H9.20703C9.30564 16.3486 9.43777 16.6832 9.59971 17H5.5C4.11929 17 3 15.8807 3 14.5V5.5C3 4.11929 4.11929 3 5.5 3H14.5ZM14.5 4H5.5C4.67157 4 4 4.67157 4 5.5V6H16V5.5C16 4.67157 15.3284 4 14.5 4ZM13.875 12.5C13.875 12.1548 14.1548 11.875 14.5 11.875C14.8452 11.875 15.125 12.1548 15.125 12.5C15.125 12.8452 14.8452 13.125 14.5 13.125C14.1548 13.125 13.875 12.8452 13.875 12.5ZM15 16.5C15 16.7761 14.7761 17 14.5 17C14.2239 17 14 16.7761 14 16.5V14.5C14 14.2239 14.2239 14 14.5 14C14.7761 14 15 14.2239 15 14.5V16.5ZM10 14.5C10 12.0147 12.0147 10 14.5 10C16.9853 10 19 12.0147 19 14.5C19 16.9853 16.9853 19 14.5 19C12.0147 19 10 16.9853 10 14.5ZM11 14.5C11 16.433 12.567 18 14.5 18C16.433 18 18 16.433 18 14.5C18 12.567 16.433 11 14.5 11C12.567 11 11 12.567 11 14.5Z" fill="#212121"/>
</svg>

<svg viewBox="0 0 20 20" fill="none" xmlns="http://www.w3.org/2000/svg" height="1em" width="1em">
  <path d="M14.5 3A2.5 2.5 0 0 1 17 5.5v4.1a5.465 5.465 0 0 0-1-.393V7H4v7.5A1.5 1.5 0 0 0 5.5 16h3.707c.099.349.23.683.393 1H5.5A2.5 2.5 0 0 1 3 14.5v-9A2.5 2.5 0 0 1 5.5 3h9Zm0 1h-9A1.5 1.5 0 0 0 4 5.5V6h12v-.5A1.5 1.5 0 0 0 14.5 4Zm-.625 8.5a.625.625 0 1 1 1.25 0 .625.625 0 0 1-1.25 0Zm1.125 4a.5.5 0 0 1-1 0v-2a.5.5 0 0 1 1 0v2Zm-5-2a4.5 4.5 0 1 1 9 0 4.5 4.5 0 0 1-9 0Zm1 0a3.5 3.5 0 1 0 7 0 3.5 3.5 0 0 0-7 0Z" fill="#212121"/>
</svg>
